X: 39590
T: Teelin, The
R: reel
M: 4/4
K: Amixolydian
B|:A2ED CA,A,B,|~=C2GC ACGC|=cAGE ~D2=CD|EA~A2 EdcB|
~A3D CA,A,B,|~=C2GC ACGC|cAGE (3DED =CD|1 EAAG Aedc:|2 EAAG A3 B||
K:Am
~c2Bd cedB|~G2DG eGdG|cGeG cGce|gede cAAB|
~c2Bd cedB|~G2DG eGdG|egde cAAd|^cAAG A3B:|A4||

